wilib/img/svg/aluno.svg

<svg xmlns="http://www.w3.org/2000/svg" xmlns:xlink="http://www.w3.org/1999/xlink" preserveAspectRatio="none" width="96" height="165" viewBox="0 0 96 165"><defs><g id="a"><path fill="#FFF" d="M562.35 260.1l-1.65-8.4q-30.9-11.75-22.1 35.8l6.6.3 21.85 1.1-3.3-12.6-6.85 1.25q-5.65-.2-8.95-2.45-7.95-7.45 1.25-11.75l13.8.4-.65-3.65m29.25-85.2l.4-1.15-.4.9-.05.2.05.05m-15.7-3.05q-.5.15-.5 1l.05.65.15.2.4.25.55.1q.55 0 .9-.45l.25-.75q0-1.05-1.15-1.1l-.65.1m-22.6 1l.05.1.05.5q.3.6 1.05.6l.85-.45.3-.75q0-1.05-1.15-1.1-.55-.05-.8.2-.35.3-.35.9z"/><path fill="#E6E6E6" d="M560.7 251.7l-.5-2.6q-45.95-11.9-24.75 38.35l3.15.05q-8.8-47.55 22.1-35.8z"/><path fill="#F8A529" d="M524 279.25l2.1-1.8 2.4-2.1q.65-.85.2-2.7l-3.6 2.25q-4.8 3.15-4.85 4.3l3.7.1.05-.05m15.45-41.5l7.15.15q.7-10.9 1.75-16.4-3.35 15.8-8.9 16.25m20.7-21.45v-4.8l-1.25.75 1.25 4.05m35.25 55.85q4.1-1.3 7.5-3.3l1.75-21q-3.4 28.75-34.75 24.25-7.1 4.7-21.95 3 3.3 2.25 8.95 2.45l6.85-1.25 7.35-1.35q14.3.4 24.3-2.8M592 241.9v-7q-.8 4.1-2.1 3.8.6 2.85 2.1 3.2m-11.1-27.7l1.25-3.35-1.25-.7v4.05m0-6.95v-2.85l-2.85 1.75q-4.25 2.15-9.95 2.4-4.35.2-7.95-1.15v2.85q3.6 1.3 7.95 1.15 5.7-.25 9.95-2.4l2.85-1.75m15.4-27.5l-.15-3.65q-1.1 9.65-4.3 10.6.25 1.85 1.2 1.9.8.05 2.05-2.4 1.2-2.5 1.2-6.45m-24.35-16.4l-1.45 2.6 14.4.55-.2-2.65-12.75-.5m-7.5 1.5l-1.05 3.3q4.25-2.5 7.7-5.9l4.3-7.7q-4.5 6.3-10.95 10.3m4 36.2l-.3-.75q-.3-.25-.7-.25-.45 0-.8.25l-.25.75.25.75.8.3.7-.3.3-.75m-6.6-14.25l-.1.9q0 1.6 1.05 2.65 1 1 2.55.6l2.2-.75q.6-.4 1.4-3l-1.4 1.1q-.65.4-2.2.8-1.55.35-2.55-.6-.75-.75-.95-1.7m-8.75-27.75l.45-3.4-6.6 10.4-.35 3.25 6.5-10.25m12.3.45l1.25-3.85q-6.35 6.3-14.5 9.35l-1.35 3.15q8.15-2.8 14.6-8.65z"/><path fill="#FCCE8B" d="M526.1 267q-.1-1.95-1.55-2.7l-3.45.2h-.05l-1.15.1q-6.4 1.1-1.3 10.05.3 1.85.85 3.2l.8 1.35q.05-1.15 4.85-4.3l3.6-2.25-.55-1.65q-.7-1.75-2.05-4m22.25-45.5l1-3.95-3.45 1.9q-5.4 3.7-7.25 13.95v4.25l.8.1q5.55-.45 8.9-16.25m32.55-11.35v-2.9l-2.85 1.75q-4.25 2.15-9.95 2.4-4.35.15-7.95-1.15v6.05l-1.25-4.05-1.25.7q9.25 35.65 25.8-1.4l-1.3-.7-1.25 3.35v-4.05m14 7.9l-3.8-2.15q-2.5 16.9-1.2 22.8 1.3.3 2.1-3.8v7l.05 3.5v.05l.1 14.6-15.25 4.65-6.85 2.15q-2.25-5-7.7-6.75l.65 3.65-13.8-.4q-9.2 4.3-1.25 11.75 14.85 1.7 21.95-3 31.35 4.5 34.75-24.25v-9.1q-1.15-15.7-9.75-20.7m-44.1-49.9l1.35-3.15-1.35.5q1.6-3 2.3-6.45l-6.5 10.25-1.9 14.25q.6 8.45 6.4 16.6 2.55 3.55 5.75 5.6l2.85 1.5.45.15q3.6 1.35 7.95 1.15 5.7-.25 9.95-2.4l2.85-1.75q1.95-1.45 3.55-3.4 5.65-7.1 7.4-14.3 3.2-.95 4.3-10.6l-.4-1.5-.85-1.4q-.6-.9-1.3-.9-.5 0-.95.5l-.65.95-.4 1.15-5.25 16.3-1.45-24.7-14.4-.55 1.45-2.6-1.45-.05.6-1.05q-3.45 3.4-7.7 5.9l1.05-3.3-1.05.65 2-6q-6.45 5.85-14.6 8.65m2.85 3.8l.1-.4q.7-1.5 1.65-1.5.9 0 1.6 1.5.65 1.4.7 3.25v.45q0 2.1-.7 3.65-.7 1.55-1.6 1.55-.95 0-1.65-1.55-.65-1.55-.65-3.65v-.45q.05-1 .25-1.85l-.05-.1q0-.6.35-.9m8.1 15.75l.1-.9q.2.95.95 1.7 1 .95 2.55.6 1.55-.4 2.2-.8l1.4-1.1q-.8 2.6-1.4 3l-2.2.75q-1.55.4-2.55-.6-1.05-1.05-1.05-2.65m4.8 8.7l.15-.1h.65l.2-.15.1 1.85-.1.05-.5.3h-.45l-.05-1.95m8.85-23.55q0-.85.5-1l.1-.3q.75-1.5 1.65-1.5.95 0 1.6 1.5.65 1.45.7 3.35v.35q0 2.1-.7 3.65-.65 1.55-1.6 1.55-.9 0-1.65-1.55-.65-1.55-.65-3.65v-.35l.1-1.4-.05-.65m-7.25 27.45l.3.75-.3.75-.7.3-.8-.3-.25-.75.25-.75q.35-.25.8-.25.4 0 .7.25z"/><path fill="#CCC" d="M546.6 237.9l-7.15-.15-.8-.1q-15.25-.9-29.8 1.25 6.75 12.8 12.2 25.6h.05l3.45-.2q1.45.75 1.55 2.7 1.35 2.25 2.05 4l.55 1.65q.45 1.85-.2 2.7l-2.4 2.1 2.9 10.35 6.45-.35q-21.2-50.25 24.75-38.35l-2.05-10.95-9.95-.2-1.6-.05z"/><path fill="#060" d="M549.35 217.55l-1 3.95q-1.05 5.5-1.75 16.4l1.6.05q.75-10.95 1.75-16.45l1.1-4.9-1.7.95m35.7-5.05l-1.6-.95q-16.55 37.05-25.8 1.4l-1.35.7q10.35 40.1 28.75-1.15m6.05 3.4l-2-1.1q-3.55 21.7-1.25 26.6 2.3 4.85 4.2 4l-.05-3.5q-1.5-.35-2.1-3.2-1.3-5.9 1.2-22.8z"/><path fill="#A3CA02" d="M576.9 264.7l15.25-4.65-.1-14.6q-1 14.55-15.15 19.25m-4.8 27.75l-4-11.4q23.7-.55 27.25-6.6l.05-2.3q-10 3.2-24.3 2.8l-7.35 1.35 3.3 12.6-21.85-1.1v2.3l26.9 2.35z"/><path fill="#CF0" d="M568.1 281.05l4 11.4-26.9-2.35-.05 4.4q22.05 7.1 49.45.45l.75-20.5q-3.55 6.05-27.25 6.6m23.95-35.65q-1.9.85-4.2-4-2.3-4.9 1.25-26.6l-4.05-2.3q-18.4 41.25-28.75 1.15l-5.25 2.95-1.1 4.9q-1 5.5-1.75 16.45l9.95.2 2.05 10.95.5 2.6 1.65 8.4q5.45 1.75 7.7 6.75l6.85-2.15q14.15-4.7 15.15-19.25v-.05z"/><path fill="#3C0000" d="M570.5 163.3l1.45.05 12.75.5q4.6-4.2 3.3-8.45-4.25 6.35-17.5 7.9m24.6-2.2l-2-6.5q-.9 17.4-8.2 11.9l1.45 24.7 5.25-16.3-.05-.05.05-.2.4-.9.65-.95q.45-.5.95-.5.7 0 1.3.9 3.3-6.9 5.15-13.15l-4.95 1.05m-31.7 4.4l1.05-.65q6.45-4 10.95-10.3 1.55-5.25.25-5.75-3.65 8.95-12.25 16.7m3.25-9.85l.2-6.9q-5.35 9.05-16.05 16.75l1.35-.5q8.15-3.05 14.5-9.35z"/><path fill="#9F6" d="M579.95 175.25v-.35q-2.3 4.9-4.6 0v.35q0 2.1.65 3.65.75 1.55 1.65 1.55.95 0 1.6-1.55.7-1.55.7-3.65m-22.25 0v-.45q-2.8 6.2-4.6 0v.45q0 2.1.65 3.65.7 1.55 1.65 1.55.9 0 1.6-1.55.7-1.55.7-3.65z"/><path fill="#7ACA02" d="M576 171.55l-.1.3.65-.1q1.15.05 1.15 1.1l-.25.75q-.35.45-.9.45l-.55-.1-.4-.25-.15-.2-.1 1.4q2.3 4.9 4.6 0-.05-1.9-.7-3.35-.65-1.5-1.6-1.5-.9 0-1.65 1.5m-22.25 0l-.1.4q.25-.25.8-.2 1.15.05 1.15 1.1l-.3.75-.85.45q-.75 0-1.05-.6l-.05-.5q-.2.85-.25 1.85 1.8 6.2 4.6 0-.05-1.85-.7-3.25-.7-1.5-1.6-1.5-.95 0-1.65 1.5z"/><path d="M566.7 196.3l-.15.1.05 1.95h.45l.5-.3.1-.05-.1-1.85-.2.15h-.65z"/><path fill="#600" d="M556.25 133.75l4.4 6.05-24.1-4.4 7.15 10.4-7.7-3.3 4.95 7.7h-6.55l11.95 10.8h-7.6l5.25 6.8.7 15.75 1.9-14.25.35-3.25 6.6-10.4-.45 3.4q-.7 3.45-2.3 6.45 10.7-7.7 16.05-16.75l-.2 6.9-1.25 3.85-2 6q8.6-7.75 12.25-16.7 1.3.5-.25 5.75l-4.3 7.7-.6 1.05q13.25-1.55 17.5-7.9 1.3 4.25-3.3 8.45l.2 2.65q7.3 5.5 8.2-11.9l-6.2-19.75-2.75 7.65-27.9-8.75z"/></g><path id="b" stroke="#000" stroke-linejoin="round" stroke-linecap="round" fill="none" d="M560.65 139.8l-4.4-6.05 27.9 8.75 2.75-7.65 6.2 19.75 2 6.5 4.95-1.05q-1.85 6.25-5.15 13.15m-50.2 10.35l-.7-15.75-5.25-6.8h7.6l-11.95-10.8h6.55l-4.95-7.7 7.7 3.3m27.4 16.45l-.6 1.05m14.4 3.2l-.2-2.65m-21.3 1.65l1.05-.65m-10.9-9.2l-6.6 10.4-.35 3.25-1.9 14.25m50.2-10.35q-.6-.9-1.3-.9-.5 0-.95.5l-.65.95-.4 1.15m-5.25 16.3l-1.45-24.7m-14.4-3.2l1.45.05"/></defs><g transform="translate(-508.85 -133.75)"><use xlink:href="#a"/><use xlink:href="#b"/></g></svg>

<svg xmlns="http://www.w3.org/2000/svg" version="1.1" xmlns:xlink="http://www.w3.org/1999/xlink" preserveAspectRatio="none" x="0px" y="0px" width="96px" height="165px" viewBox="0 0 96 165">
<defs>
<g id="Layer0_0_MEMBER_0_FILL">
<path fill="#FFFFFF" stroke="none" d="
M 562.35 260.1
L 560.7 251.7
Q 529.8 239.95 538.6 287.5
L 545.2 287.8 567.05 288.9 563.75 276.3 556.9 277.55
Q 551.25 277.35 547.95 275.1 540 267.65 549.2 263.35
L 563 263.75 562.35 260.1
M 591.6 174.9
L 592 173.75 591.6 174.65 591.55 174.85 591.6 174.9
M 575.9 171.85
Q 575.4 172 575.4 172.85
L 575.45 173.5 575.6 173.7 576 173.95 576.55 174.05
Q 577.1 174.05 577.45 173.6
L 577.7 172.85
Q 577.7 171.8 576.55 171.75
L 575.9 171.85
M 553.3 172.85
L 553.35 172.95 553.4 173.45
Q 553.7 174.05 554.45 174.05
L 555.3 173.6 555.6 172.85
Q 555.6 171.8 554.45 171.75 553.9 171.7 553.65 171.95 553.3 172.25 553.3 172.85 Z"/>

<path fill="#E6E6E6" stroke="none" d="
M 560.7 251.7
L 560.2 249.1
Q 514.25 237.2 535.45 287.45
L 538.6 287.5
Q 529.8 239.95 560.7 251.7 Z"/>

<path fill="#F8A529" stroke="none" d="
M 524 279.25
L 526.1 277.45 528.5 275.35
Q 529.15 274.5 528.7 272.65
L 525.1 274.9
Q 520.3 278.05 520.25 279.2
L 523.95 279.3 524 279.25
M 539.45 237.75
L 546.6 237.9
Q 547.3 227 548.35 221.5 545 237.3 539.45 237.75
M 560.15 216.3
L 560.15 211.5 558.9 212.25 560.15 216.3
M 595.4 272.15
Q 599.5 270.85 602.9 268.85
L 604.65 247.85
Q 601.25 276.6 569.9 272.1 562.8 276.8 547.95 275.1 551.25 277.35 556.9 277.55
L 563.75 276.3 571.1 274.95
Q 585.4 275.35 595.4 272.15
M 592 241.9
L 592 234.9
Q 591.2 239 589.9 238.7 590.5 241.55 592 241.9
M 580.9 214.2
L 582.15 210.85 580.9 210.15 580.9 214.2
M 580.9 207.25
L 580.9 204.4 578.05 206.15
Q 573.8 208.3 568.1 208.55 563.75 208.75 560.15 207.4
L 560.15 210.25
Q 563.75 211.55 568.1 211.4 573.8 211.15 578.05 209
L 580.9 207.25
M 596.3 179.75
L 596.15 176.1
Q 595.05 185.75 591.85 186.7 592.1 188.55 593.05 188.6 593.85 188.65 595.1 186.2 596.3 183.7 596.3 179.75
M 571.95 163.35
L 570.5 165.95 584.9 166.5 584.7 163.85 571.95 163.35
M 564.45 164.85
L 563.4 168.15
Q 567.65 165.65 571.1 162.25
L 575.4 154.55
Q 570.9 160.85 564.45 164.85
M 568.45 201.05
L 568.15 200.3
Q 567.85 200.05 567.45 200.05 567 200.05 566.65 200.3
L 566.4 201.05 566.65 201.8 567.45 202.1 568.15 201.8 568.45 201.05
M 561.85 186.8
L 561.75 187.7
Q 561.75 189.3 562.8 190.35 563.8 191.35 565.35 190.95
L 567.55 190.2
Q 568.15 189.8 568.95 187.2
L 567.55 188.3
Q 566.9 188.7 565.35 189.1 563.8 189.45 562.8 188.5 562.05 187.75 561.85 186.8
M 553.1 159.05
L 553.55 155.65 546.95 166.05 546.6 169.3 553.1 159.05
M 565.4 159.5
L 566.65 155.65
Q 560.3 161.95 552.15 165
L 550.8 168.15
Q 558.95 165.35 565.4 159.5 Z"/>

<path fill="#FCCE8B" stroke="none" d="
M 526.1 267
Q 526 265.05 524.55 264.3
L 521.1 264.5 521.05 264.5 519.9 264.6
Q 513.5 265.7 518.6 274.65 518.9 276.5 519.45 277.85
L 520.25 279.2
Q 520.3 278.05 525.1 274.9
L 528.7 272.65 528.15 271
Q 527.45 269.25 526.1 267
M 548.35 221.5
L 549.35 217.55 545.9 219.45
Q 540.5 223.15 538.65 233.4
L 538.65 237.65 539.45 237.75
Q 545 237.3 548.35 221.5
M 580.9 210.15
L 580.9 207.25 578.05 209
Q 573.8 211.15 568.1 211.4 563.75 211.55 560.15 210.25
L 560.15 211.5 560.15 216.3 558.9 212.25 557.65 212.95
Q 566.9 248.6 583.45 211.55
L 582.15 210.85 580.9 214.2 580.9 210.15
M 594.9 218.05
L 591.1 215.9
Q 588.6 232.8 589.9 238.7 591.2 239 592 234.9
L 592 241.9 592.05 245.4 592.05 245.45 592.15 260.05 576.9 264.7 570.05 266.85
Q 567.8 261.85 562.35 260.1
L 563 263.75 549.2 263.35
Q 540 267.65 547.95 275.1 562.8 276.8 569.9 272.1 601.25 276.6 604.65 247.85
L 604.65 238.75
Q 603.5 223.05 594.9 218.05
M 550.8 168.15
L 552.15 165 550.8 165.5
Q 552.4 162.5 553.1 159.05
L 546.6 169.3 544.7 183.55
Q 545.3 192 551.1 200.15 553.65 203.7 556.85 205.75
L 559.7 207.25 560.15 207.4
Q 563.75 208.75 568.1 208.55 573.8 208.3 578.05 206.15
L 580.9 204.4
Q 582.85 202.95 584.45 201 590.1 193.9 591.85 186.7 595.05 185.75 596.15 176.1
L 595.75 174.6 594.9 173.2
Q 594.3 172.3 593.6 172.3 593.1 172.3 592.65 172.8
L 592 173.75 591.6 174.9 586.35 191.2 584.9 166.5 570.5 165.95 571.95 163.35 570.5 163.3 571.1 162.25
Q 567.65 165.65 563.4 168.15
L 564.45 164.85 563.4 165.5 565.4 159.5
Q 558.95 165.35 550.8 168.15
M 553.65 171.95
L 553.75 171.55
Q 554.45 170.05 555.4 170.05 556.3 170.05 557 171.55 557.65 172.95 557.7 174.8
L 557.7 175.25
Q 557.7 177.35 557 178.9 556.3 180.45 555.4 180.45 554.45 180.45 553.75 178.9 553.1 177.35 553.1 175.25
L 553.1 174.8
Q 553.15 173.8 553.35 172.95
L 553.3 172.85
Q 553.3 172.25 553.65 171.95
M 561.75 187.7
L 561.85 186.8
Q 562.05 187.75 562.8 188.5 563.8 189.45 565.35 189.1 566.9 188.7 567.55 188.3
L 568.95 187.2
Q 568.15 189.8 567.55 190.2
L 565.35 190.95
Q 563.8 191.35 562.8 190.35 561.75 189.3 561.75 187.7
M 566.55 196.4
L 566.7 196.3 567.35 196.3 567.55 196.15 567.65 198 567.55 198.05 567.05 198.35 566.6 198.35 566.55 196.4
M 575.4 172.85
Q 575.4 172 575.9 171.85
L 576 171.55
Q 576.75 170.05 577.65 170.05 578.6 170.05 579.25 171.55 579.9 173 579.95 174.9
L 579.95 175.25
Q 579.95 177.35 579.25 178.9 578.6 180.45 577.65 180.45 576.75 180.45 576 178.9 575.35 177.35 575.35 175.25
L 575.35 174.9 575.45 173.5 575.4 172.85
M 568.15 200.3
L 568.45 201.05 568.15 201.8 567.45 202.1 566.65 201.8 566.4 201.05 566.65 200.3
Q 567 200.05 567.45 200.05 567.85 200.05 568.15 200.3 Z"/>

<path fill="#CCCCCC" stroke="none" d="
M 546.6 237.9
L 539.45 237.75 538.65 237.65
Q 523.4 236.75 508.85 238.9 515.6 251.7 521.05 264.5
L 521.1 264.5 524.55 264.3
Q 526 265.05 526.1 267 527.45 269.25 528.15 271
L 528.7 272.65
Q 529.15 274.5 528.5 275.35
L 526.1 277.45 529 287.8 535.45 287.45
Q 514.25 237.2 560.2 249.1
L 558.15 238.15 548.2 237.95 546.6 237.9 Z"/>

<path fill="#006600" stroke="none" d="
M 549.35 217.55
L 548.35 221.5
Q 547.3 227 546.6 237.9
L 548.2 237.95
Q 548.95 227 549.95 221.5
L 551.05 216.6 549.35 217.55
M 585.05 212.5
L 583.45 211.55
Q 566.9 248.6 557.65 212.95
L 556.3 213.65
Q 566.65 253.75 585.05 212.5
M 591.1 215.9
L 589.1 214.8
Q 585.55 236.5 587.85 241.4 590.15 246.25 592.05 245.4
L 592 241.9
Q 590.5 241.55 589.9 238.7 588.6 232.8 591.1 215.9 Z"/>

<path fill="#A3CA02" stroke="none" d="
M 576.9 264.7
L 592.15 260.05 592.05 245.45
Q 591.05 260 576.9 264.7
M 572.1 292.45
L 568.1 281.05
Q 591.8 280.5 595.35 274.45
L 595.4 272.15
Q 585.4 275.35 571.1 274.95
L 563.75 276.3 567.05 288.9 545.2 287.8 545.2 290.1 572.1 292.45 Z"/>

<path fill="#CCFF00" stroke="none" d="
M 568.1 281.05
L 572.1 292.45 545.2 290.1 545.15 294.5
Q 567.2 301.6 594.6 294.95
L 595.35 274.45
Q 591.8 280.5 568.1 281.05
M 592.05 245.4
Q 590.15 246.25 587.85 241.4 585.55 236.5 589.1 214.8
L 585.05 212.5
Q 566.65 253.75 556.3 213.65
L 551.05 216.6 549.95 221.5
Q 548.95 227 548.2 237.95
L 558.15 238.15 560.2 249.1 560.7 251.7 562.35 260.1
Q 567.8 261.85 570.05 266.85
L 576.9 264.7
Q 591.05 260 592.05 245.45
L 592.05 245.4 Z"/>

<path fill="#3C0000" stroke="none" d="
M 570.5 163.3
L 571.95 163.35 584.7 163.85
Q 589.3 159.65 588 155.4 583.75 161.75 570.5 163.3
M 595.1 161.1
L 593.1 154.6
Q 592.2 172 584.9 166.5
L 586.35 191.2 591.6 174.9 591.55 174.85 591.6 174.65 592 173.75 592.65 172.8
Q 593.1 172.3 593.6 172.3 594.3 172.3 594.9 173.2 598.2 166.3 600.05 160.05
L 595.1 161.1
M 563.4 165.5
L 564.45 164.85
Q 570.9 160.85 575.4 154.55 576.95 149.3 575.65 148.8 572 157.75 563.4 165.5
M 566.65 155.65
L 566.85 148.75
Q 561.5 157.8 550.8 165.5
L 552.15 165
Q 560.3 161.95 566.65 155.65 Z"/>

<path fill="#99FF66" stroke="none" d="
M 579.95 175.25
L 579.95 174.9
Q 577.65 179.8 575.35 174.9
L 575.35 175.25
Q 575.35 177.35 576 178.9 576.75 180.45 577.65 180.45 578.6 180.45 579.25 178.9 579.95 177.35 579.95 175.25
M 557.7 175.25
L 557.7 174.8
Q 554.9 181 553.1 174.8
L 553.1 175.25
Q 553.1 177.35 553.75 178.9 554.45 180.45 555.4 180.45 556.3 180.45 557 178.9 557.7 177.35 557.7 175.25 Z"/>

<path fill="#7ACA02" stroke="none" d="
M 576 171.55
L 575.9 171.85 576.55 171.75
Q 577.7 171.8 577.7 172.85
L 577.45 173.6
Q 577.1 174.05 576.55 174.05
L 576 173.95 575.6 173.7 575.45 173.5 575.35 174.9
Q 577.65 179.8 579.95 174.9 579.9 173 579.25 171.55 578.6 170.05 577.65 170.05 576.75 170.05 576 171.55
M 553.75 171.55
L 553.65 171.95
Q 553.9 171.7 554.45 171.75 555.6 171.8 555.6 172.85
L 555.3 173.6 554.45 174.05
Q 553.7 174.05 553.4 173.45
L 553.35 172.95
Q 553.15 173.8 553.1 174.8 554.9 181 557.7 174.8 557.65 172.95 557 171.55 556.3 170.05 555.4 170.05 554.45 170.05 553.75 171.55 Z"/>

<path fill="#000000" stroke="none" d="
M 566.7 196.3
L 566.55 196.4 566.6 198.35 567.05 198.35 567.55 198.05 567.65 198 567.55 196.15 567.35 196.3 566.7 196.3 Z"/>

<path fill="#660000" stroke="none" d="
M 556.25 133.75
L 560.65 139.8 536.55 135.4 543.7 145.8 536 142.5 540.95 150.2 534.4 150.2 546.35 161 538.75 161 544 167.8 544.7 183.55 546.6 169.3 546.95 166.05 553.55 155.65 553.1 159.05
Q 552.4 162.5 550.8 165.5 561.5 157.8 566.85 148.75
L 566.65 155.65 565.4 159.5 563.4 165.5
Q 572 157.75 575.65 148.8 576.95 149.3 575.4 154.55
L 571.1 162.25 570.5 163.3
Q 583.75 161.75 588 155.4 589.3 159.65 584.7 163.85
L 584.9 166.5
Q 592.2 172 593.1 154.6
L 586.9 134.85 584.15 142.5 556.25 133.75 Z"/>
</g>

<path id="Layer0_0_MEMBER_0_1_STROKES" stroke="#000000" stroke-width="1" stroke-linejoin="round" stroke-linecap="round" fill="none" d="
M 560.65 139.8
L 556.25 133.75 584.15 142.5 586.9 134.85 593.1 154.6 595.1 161.1 600.05 160.05
Q 598.2 166.3 594.9 173.2
M 544.7 183.55
L 544 167.8 538.75 161 546.35 161 534.4 150.2 540.95 150.2 536 142.5 543.7 145.8
M 571.1 162.25
L 570.5 163.3
M 584.9 166.5
L 584.7 163.85
M 563.4 165.5
L 564.45 164.85
M 553.55 155.65
L 546.95 166.05 546.6 169.3 544.7 183.55
M 594.9 173.2
Q 594.3 172.3 593.6 172.3 593.1 172.3 592.65 172.8
L 592 173.75 591.6 174.9
M 586.35 191.2
L 584.9 166.5
M 570.5 163.3
L 571.95 163.35"/>
</defs>

<g transform="matrix( 1, 0, 0, 1, -508.85,-133.75) ">
<use xlink:href="#Layer0_0_MEMBER_0_FILL"/>

<use xlink:href="#Layer0_0_MEMBER_0_1_STROKES"/>
</g>
</svg>
